X:618
T:Nora With the Amber Hair.
R:air
Z:
T:Nora an cuil omra.
Z:Tempo: Tenderly.
M:3/4
Q:110
K:G
gf|e2 d2 BA|B2G2 GB|A2 G2 .G2|G4 GA|
B2 d2 3efg|f2 ed2 BA|B2 d2 ed|d4 3GBd|
g2 gfed|f2 e2 3dBA|G2 GA Bc/d/|Hf4 gf|
e2 d2 BA|B2 GF 3GAB|A2 G2 .G2|G4||
